X: 626
T: The Rambler
B: good tune book
B: tunes
M:6/8
R: jig
Q: 3/8=100
K:Amajor
V:1 
|:"A"ECE E2 A|"A"FEC E2 e|"D"fec ABc|"E"dcd BAF|
 "A"ECE E2 A|"A"FEC E2 e|"D"fec ABc|"E"BAG "A"A3:|
 |:"A"ece Ace|"A"aga "D"faf|"A"ece fec|"E"cBA Bcd|
 "A"ece Ace|"A"aga "D"faf|"A"ece fec|"E"BAG "A"A3:|
% abcbook-tune_id 63dce7ffb0be76ef96b50b7a
% abcbook-tune_composer_id 
% abcbook-link-0 https://www.youtube.com/watch?v=xfMeJvgANzg
% abcbook-boost 0
% abcbook-difficulty 0
% abcbook-tags good tune book
% abcbook-tablature 
% abcbook-transpose 
% abcbook-tuning 
% abcbook-lastupdated 1675481270560
% abcbook-soundfonts 
% abcbook-repeats 1


